X: 32255
T: Pibroch Of Donald Dhu
R: jig
M: 6/8
K: Amajor
e^de fga|ecc cBA|e^de fga|ecA B2 A|
e^de fga|ecc cBA|B2 c def|edB A3:|
ece fdf|ecc cBA|ece fdf|ecA B3|
ece fdf|ecc cBA|B2 c def|edB A2:|
(3e/f/g/|aee fee|aed cBA|aee fga|ecA B2 (3e/f/g/|
aee fee|aed cBA|B2 c def|edB A2:|

